projects/seb-pictograms/svg/light/104-Picto-Light_black.svg

<svg xmlns="http://www.w3.org/2000/svg" viewBox="0 0 170 170"><path d="M163.3 112.5l-25.7-45.6h-36v3h34.2l23.5 41.9h-40.6a1.5 1.5 0 00-1.5 1.5v23.2H52.7v-23.3a1.5 1.5 0 00-1.5-1.5H10.5l23.3-41.8H68v-3H32.9a1.5 1.5 0 00-1.3.8l-25 44.8a1.5 1.5 0 00-.2.7v50.3A1.5 1.5 0 008 165h154a1.5 1.5 0 001.5-1.5v-50.3a1.5 1.5 0 00-.2-.7zm-2.8 49.5H9.5v-47.3h40.2v23.2a1.5 1.5 0 001.5 1.5h67.5a1.5 1.5 0 001.5-1.5v-23.2h40.3z"/><path d="M47.9 46.3l35.6-35.6v110.2h3V10.7L122 46.3l2.2-2.1L85 5 45.8 44.2l2.1 2.1z"/></svg>

<svg id="PIKTO_LIGHT" xmlns="http://www.w3.org/2000/svg" viewBox="0 0 170 170"><title>light_black</title><path d="M163.3,112.5h0L137.6,66.9h-36v3h34.2l23.5,41.9H118.7a1.5,1.5,0,0,0-1.5,1.5v23.2H52.7V113.2a1.5,1.5,0,0,0-1.5-1.5H10.5L33.8,69.9H68v-3H32.9a1.5,1.5,0,0,0-1.3.8L6.6,112.5h0a1.5,1.5,0,0,0-.2.7v50.3A1.5,1.5,0,0,0,8,165H162a1.5,1.5,0,0,0,1.5-1.5V113.2A1.5,1.5,0,0,0,163.3,112.5ZM160.5,162H9.5V114.7H49.7v23.2a1.5,1.5,0,0,0,1.5,1.5h67.5a1.5,1.5,0,0,0,1.5-1.5V114.7h40.3Z"/><polygon points="47.9 46.3 83.5 10.7 83.5 120.9 86.5 120.9 86.5 10.7 122 46.3 124.2 44.2 85 5 45.8 44.2 47.9 46.3"/></svg>
